X:1
T:Oor Auld Gudeman is Noo Awa'
M:C
L:1/8
R:Strathspey
B: Köhler's Violin Repository, Book One (1881, p. 5)
Z:AK/Fiddler's Companion
K:Bb
B|F<B(B>c) (d>c)d>g|f<d {d}c>B (G2 G)B|F>d B>g d>bg>e|f>dc<d G2-GF|
F<B(B>c) {e}(d>c)d>g|f<d {d}c>B G2-GB|(F<B)F/ (E>B)E/ (D>B)D/ C/>g/|f<dc>d (B2B)||
f|(3bag (3agf  {a}g>fd>g|f<d{d}c>B G-G>f|b>fg>e f<db>g|f<dc>d (B2 B)f|
(3bag (3agf g>fd>g|f<d{d}c>B G2-GB|(F<B)F/ (E>B)E/ (D>G)D/ C/>g/|f<dc>d B2-B||

